src/components/ProductFeature/images/icons/paths.svg

<svg width="24" height="24" viewBox="0 0 24 24" fill="none" xmlns="http://www.w3.org/2000/svg">
<path d="M5.94296 2.06948C3.85421 2.06948 2.15552 3.76823 2.15552 5.85692C2.15552 6.5366 2.35052 7.26786 2.73677 8.03192C3.03865 8.63379 3.46052 9.25818 3.98833 9.88818C4.88084 10.955 5.7602 11.6619 5.79771 11.691L5.94584 11.8082L6.09115 11.691C6.12865 11.661 7.00802 10.9504 7.90053 9.8816C8.4274 9.2516 8.8474 8.62535 9.14928 8.02535C9.53366 7.26128 9.73053 6.53283 9.73053 5.85786C9.73053 3.76818 8.03085 2.06946 5.94309 2.06946L5.94296 2.06948ZM5.94296 6.92756C5.35234 6.92756 4.87234 6.44756 4.87234 5.85695C4.87234 5.26633 5.35234 4.78633 5.94296 4.78633C6.53357 4.78633 7.01357 5.26633 7.01357 5.85695C7.01357 6.44756 6.53357 6.92756 5.94296 6.92756Z" fill="#A970DC"/>
<path d="M20.2766 9.42898C19.2641 8.41647 17.9188 7.86053 16.4892 7.86053C15.0586 7.86053 13.7114 8.41834 12.7017 9.42898C11.6892 10.4415 11.1333 11.7868 11.1333 13.2164C11.1333 14.1802 11.4099 15.218 11.9583 16.3083C12.3914 17.169 12.9942 18.0615 13.7489 18.9632C15.0314 20.4932 16.2915 21.5058 16.3438 21.5487L16.4919 21.6659L16.6372 21.5487C16.6907 21.5066 17.9497 20.4875 19.2321 18.9539C19.9868 18.0492 20.5896 17.1557 21.0227 16.2961C21.5712 15.2086 21.8477 14.1727 21.8477 13.2164C21.8458 11.7858 21.289 10.4415 20.2765 9.42898H20.2766ZM16.4892 14.709C15.6661 14.709 14.9986 14.0415 14.9986 13.2184C14.9986 12.3952 15.6661 11.7278 16.4892 11.7278C17.3123 11.7278 17.9798 12.3952 17.9798 13.2184C17.9798 14.0387 17.3114 14.709 16.4892 14.709Z" fill="#A970DC"/>
<path d="M7.59854 12.1053C7.49354 12.0818 7.38479 12.0696 7.27509 12.0696H6.88135V11.1321H7.27509C7.45134 11.1321 7.62664 11.1509 7.79541 11.1884L7.59854 12.1053Z" fill="#A970DC"/>
<path d="M11.3986 20.9937V21.9312H12.953V20.9937H11.3986ZM8.51306 20.9937V21.9312H10.0674V20.9937H8.51306ZM6.11114 20.9937C5.9752 20.9937 5.84114 20.9824 5.70988 20.9609L5.55801 21.8871C5.74082 21.9171 5.9255 21.9321 6.11114 21.9321H7.18458V20.9946L6.11114 20.9937ZM3.86301 19.5434L3.00988 19.9296C3.25833 20.4781 3.64926 20.9534 4.14239 21.3031L4.68614 20.539C4.32707 20.2868 4.04301 19.9418 3.86301 19.5434V19.5434ZM3.22362 16.7263C2.90488 17.2372 2.72675 17.825 2.70801 18.4306L3.6455 18.4569C3.65675 18.0181 3.78612 17.5925 4.01862 17.2241L3.22362 16.7263ZM6.00811 15.1278C5.40343 15.1466 4.81559 15.3247 4.30372 15.6434L4.80247 16.4384C5.17279 16.2059 5.59934 16.0775 6.03527 16.0653L6.00811 15.1278ZM8.38656 14.645C8.11 14.9403 7.735 15.1109 7.33468 15.125L7.37031 16.0625C8.01905 16.0362 8.62469 15.7625 9.06905 15.2862L8.38656 14.645ZM9.17404 12.0295L8.45217 12.6276C8.67717 12.8995 8.80092 13.2464 8.80092 13.6007C8.80092 13.6457 8.79904 13.6898 8.79623 13.7339L9.72904 13.8135C9.73654 13.7432 9.73841 13.671 9.73841 13.5998C9.73935 13.0279 9.53685 12.4701 9.17403 12.0295H9.17404Z" fill="#A970DC"/>
<path d="M14.2852 20.9929H15.1055V21.9304H14.2852V20.9929Z" fill="#A970DC"/>
</svg>

<svg fill="none" viewBox="0 0 24 24"><path fill="#A970DC" d="M5.943 2.07a3.791 3.791 0 00-3.787 3.787c0 .68.195 1.41.58 2.175.303.602.725 1.226 1.252 1.856a14.004 14.004 0 001.81 1.803l.148.117.145-.117c.038-.03.917-.74 1.81-1.81a9.825 9.825 0 001.248-1.856c.385-.764.582-1.492.582-2.167 0-2.09-1.7-3.789-3.788-3.789zm0 4.858a1.071 1.071 0 11.002-2.143 1.071 1.071 0 01-.002 2.143zm14.334 2.501a5.32 5.32 0 00-3.788-1.568c-1.43 0-2.778.557-3.787 1.568a5.32 5.32 0 00-1.569 3.787c0 .964.277 2.002.825 3.092.433.861 1.036 1.753 1.79 2.655 1.283 1.53 2.543 2.543 2.596 2.586l.148.117.145-.117a20.481 20.481 0 002.595-2.595c.755-.905 1.358-1.798 1.79-2.658.55-1.087.826-2.123.826-3.08a5.33 5.33 0 00-1.572-3.787zm-3.788 5.28a1.49 1.49 0 110-2.982 1.49 1.49 0 010 2.982zM7.6 12.105a1.483 1.483 0 00-.324-.035h-.394v-.938h.394c.176 0 .352.019.52.056l-.196.917zm3.8 8.889v.937h1.554v-.937H11.4zm-2.886 0v.937h1.554v-.937H8.513zm-2.402 0c-.136 0-.27-.012-.401-.033l-.152.926c.183.03.368.045.553.045h1.074v-.937l-1.074-.001zm-2.248-1.45l-.853.386a3.41 3.41 0 001.132 1.373l.544-.764a2.45 2.45 0 01-.823-.996zm-.64-2.818a3.419 3.419 0 00-.515 1.705l.938.026c.01-.439.14-.864.373-1.233l-.795-.498zm2.785-1.598a3.426 3.426 0 00-1.704.515l.498.795c.37-.232.797-.36 1.233-.373l-.027-.937zm2.379-.483a1.508 1.508 0 01-1.052.48l.035.938a2.445 2.445 0 001.7-.777l-.683-.641zm.787-2.615l-.722.598a1.531 1.531 0 01.344 1.106l.933.08a2.472 2.472 0 00-.555-1.784zm5.111 8.963h.82v.937h-.82v-.937z"/></svg>
